X:1
T:James Gibb editions
T:Aus tiefer Not - Resinarius
T:#
%%score [ 1 2 3 4 ]
L:1/8
Q:1/4=120
M:2/2
K:C
V:1 treble nm="Soprano" snm="S"
V:2 treble-8 nm="Tenor 1" snm="T 1"
V:3 treble-8 nm="Tenor 2" snm="T 2"
V:4 bass nm="Bass" snm="B"
V:1
"^Aus tiefer Not""^Balthasar Resinarius\n(1486-1544)" z8 | z8 | B4 E4 | B2 (d3 cBA | G8) | %5
w: ||Aus tie-|fer Not * * *||
w: ||Dein gnä-|dig Oh\- * * *||
 G4 (G3 F |[M:2/2] G2 E2) A4 | G4 z2 B2 | c4 d4 | c4 A4 | (A2 GF E2 F2- | FE E4 D2) |1 E8 :|2 %13
w: schrei ich *|* * zu|dir Herr|Gott, er-|hör mein|Ru\- * * * *||fen.|
w: ren kehr *|* * zu|mir und|mei- ner|Bitt sie|öf- * * * *||fen.|
 E4 z2 A2 || G4 c4 | B4 A4 | (d4 c2 B2- | BA A4) G2 | A4 z2 c2 | B4 c4 | d4 (G3 A | BABc d2) (B2- | %22
w: fen. Denn|so du|willt das|se\- * *|* * * hen|an was|Sünd und|Un- recht *|* * * * * ist|
w: |||||||||
 BA G4) F2 | G4 z2 G2 | c4 B4 | A2 E2 (G4 | F4 E2[Q:1/4=118] G2- | %27
w: * * * ge-|tan, wer|kann, Herr,|für dir blei\-||
w: |||||
[Q:1/4=115] G[Q:1/4=113]F[Q:1/4=109] E3[Q:1/4=106] D[Q:1/4=104]D[Q:1/4=102]C) |[Q:1/4=102] E8 |] %29
w: |ben?|
w: ||
V:2
 z8 | B4 E4 | B4 c4 | B2 (G3 A B2- | B4 G2 g2- | gfed e3 d |[M:2/2][K:treble-8] B2 e4) d2 | %7
w: |Aus tie-|fer Not|schrei ich * *|||* * zu|
w: |Dein gnä-|dig Oh-|ren kehr * *|||* * zu|
 e2 d4 (d2 | e2 (A4) G2 | A8) | z4 z2 d2 | (B2 c2 A2 B2) |1 c8 :|2 c2 G3 E A2- || A2 G2 A4 | %15
w: dir Herr Gott,|er- hör *||mein|Ru\- * * *|fen.|fen. Denn so du|* willt das|
w: mir, und mei\-|* * ner|Bitt|sie|öf\- * * *|fen.|||
 (B2 G2) A4 | G4 z2 (g2- | gfed) e4 | c2 (f3 e c2) | d4 e4 | d4 e4 | z4 z2 d2- | d2 e2 d4 | %23
w: se\- * hen|an was|* * * * Sünd|und Un\- * *|recht ist|ge- tan,|wer|* kann, Herr,|
w: ||||||||
 B2 e4 (d2 | e2 c2 d4) | c4 z2 e2 | c2 d2 G2 c2 | (B2 c2 A4) | A8 |] %29
w: für dir blei\-||ben? wer|kann, Herr, für dir|blei\- * *|ben?|
w: ||||||
V:3
 z8 | z8 | z8 | B8 | E4 B4 | c4 B4 |[M:2/2][K:treble-8] G4 A4 | B8 | z4 z2 B2 | c4 d4 | c4 A4 | %11
w: |||Aus|tie- fer|Not schrei|ich zu|dir|Herr|Gott, er-|hör mein|
w: |||Dein|gnä- dig|Oh- ren|kehr zu|mir,|und|mei- ner|Bitt sie|
 (G2 E2 F4) |1 E8 :|2 E8 || z4 z2 A2 | G4 c4 | B4 A2 (d2- | d2 c2) B4 | A8 | z4 z2 c2 | B4 c4 | %21
w: Ru\- * *|fen.|fen.|Denn|so du|willt das se\-|* * hen|an|was|Sünd und|
w: öf\- * *|fen.|||||||||
 d4 (G3 A | B2) c2 A4 | G8 | z4 z2 G2 | c4 B4 | A4 E4 | (G4 F4) | E8 |] %29
w: Un- recht *|* ist ge-|tan,|wer|kann, Herr,|für dir|blei\- *|ben?|
w: ||||||||
V:4
 E,4 A,,4 | E,6 ((G,2- | G,F,E,D, C,4)) | G,8 | z4 z2 (E,2 | C,3 D, E,4- |[M:2/2] E,2 E,2 F,4 | %7
w: Aus tie-|fer Not|||schrei||* ich zu|
w: Dein gnä-|dig Oh\-||ren|kehr||* zu mir,|
 E,2 (G,3 F,E,D, | C,4 B,,4) | A,,4 (D,3 E,) | (F,3 E, C,2)) D,2 | (E,2 C,2 D,4) |1 A,,8 :|2 %13
w: dir Herr * * *||Gott, er\- *|hör * * mein|Ru\- * *|fen.|
w: und mei\- * * *||ner Bitt *|* * * sie|öf\- * *|fen.|
 A,,2 E,2 C,2 A,,2 || E,4 A,,4 | E,4 F,4 | G,4 z2 G,2- | G,2 A,2 E,4 | F,2 (D,E, F,G, A,2 | %19
w: fen. Denn so du|willt das|se- hen|an was|* Sünd und|Un- recht * * * *|
w: ||||||
 G,4) (C,3 B,, | G,,4) (C,D,E,C,) | G,4 z2 G,2- | G,2 C,2 D,4 | E,2 C,4 B,,2 | C,4 G,,4 | %25
w: * ist *|* ge\- * * *|tan, was|* Sünd und|Un- recht ist|ge- tan,|
w: ||||||
 z2 C,2 G,2 E,2 | F,2 D,2 (C,3 D, | E,2 C,2 D,4) | A,,8 |] %29
w: wer kann, Herr,|für dir blei\- *||ben?|
w: ||||

